packages/sources/icons/src/vitamix/list-settings-line.svg

<svg width="16" height="16" viewBox="0 0 16 16" xmlns="http://www.w3.org/2000/svg"><path d="M1.33337 12H6.00004V13.3334H1.33337V12ZM1.33337 7.33335H7.33337V8.66669H1.33337V7.33335ZM1.33337 2.66669H14.6667V4.00002H1.33337V2.66669ZM13.7827 8.68335L14.5534 8.42269L15.22 9.57735L14.6094 10.114C14.6862 10.4785 14.6862 10.8549 14.6094 11.2194L15.22 11.756L14.5534 12.9107L13.7827 12.65C13.5094 12.8967 13.184 13.0867 12.826 13.2034L12.6667 14H11.3334L11.1734 13.2027C10.8195 13.0871 10.4939 12.8986 10.2174 12.6494L9.44671 12.9107L8.78004 11.756L9.39071 11.2194C9.31384 10.8549 9.31384 10.4785 9.39071 10.114L8.78004 9.57735L9.44671 8.42269L10.2174 8.68335C10.4907 8.43669 10.816 8.24669 11.174 8.13002L11.3334 7.33335H12.6667L12.8267 8.13069C13.184 8.24669 13.5094 8.43735 13.7827 8.68402V8.68335ZM12 12C12.3537 12 12.6928 11.8595 12.9428 11.6095C13.1929 11.3594 13.3334 11.0203 13.3334 10.6667C13.3334 10.3131 13.1929 9.97393 12.9428 9.72388C12.6928 9.47383 12.3537 9.33335 12 9.33335C11.6464 9.33335 11.3073 9.47383 11.0572 9.72388C10.8072 9.97393 10.6667 10.3131 10.6667 10.6667C10.6667 11.0203 10.8072 11.3594 11.0572 11.6095C11.3073 11.8595 11.6464 12 12 12Z"/></svg>

<svg width="16" height="16" xmlns="http://www.w3.org/2000/svg"><path d="M1.333 12H6v1.333H1.333V12Zm0-4.667h6v1.334h-6V7.333Zm0-4.666h13.334V4H1.333V2.667Zm12.45 6.016.77-.26.667 1.154-.61.537c.076.364.076.74 0 1.105l.61.537-.667 1.155-.77-.261a2.657 2.657 0 0 1-.957.553l-.16.797h-1.333l-.16-.797a2.663 2.663 0 0 1-.956-.554l-.77.262-.667-1.155.61-.537a2.678 2.678 0 0 1 0-1.105l-.61-.537.667-1.154.77.26c.274-.246.599-.436.957-.553l.16-.797h1.333l.16.798c.357.116.682.306.956.553ZM12 12a1.333 1.333 0 1 0 0-2.667A1.333 1.333 0 0 0 12 12Z"/></svg>
